tenants/vtwonen/icons/add.svg

<svg fill="none" height="24" viewBox="0 0 24 24" width="24" xmlns="http://www.w3.org/2000/svg"><path clip-rule="evenodd" d="m12 2c.5523 0 1 .44772 1 1v8h8c.5523 0 1 .4477 1 1s-.4477 1-1 1h-8v8c0 .5523-.4477 1-1 1s-1-.4477-1-1v-8h-8c-.55228 0-1-.4477-1-1s.44772-1 1-1h8v-8c0-.55228.4477-1 1-1z" fill="#000" fill-rule="evenodd"/></svg>

<svg width="24" height="24" viewBox="0 0 24 24" fill="none" xmlns="http://www.w3.org/2000/svg">
<path fill-rule="evenodd" clip-rule="evenodd" d="M12 2C12.5523 2 13 2.44772 13 3V11H21C21.5523 11 22 11.4477 22 12C22 12.5523 21.5523 13 21 13H13V21C13 21.5523 12.5523 22 12 22C11.4477 22 11 21.5523 11 21V13H3C2.44772 13 2 12.5523 2 12C2 11.4477 2.44772 11 3 11H11V3C11 2.44772 11.4477 2 12 2Z" fill="black"/>
</svg>
